X:1
T:Title
%%score { ( 1 3 ) | ( 2 4 ) }
L:1/8
M:3/4
K:G
V:1 treble nm="Grand Piano"
V:3 treble 
V:2 bass 
V:4 bass 
V:1
 z2 z2[Q:1/4=100] D2 | D2 G2 [EA]2 | B3 G F2 | G4 D2 | D2 E2 F2 | G2 z2 z2 |[M:5/8] G2 F3 | %7
[M:1/4] E2 |[M:3/4] E2 A2 [=FB]2 | c3 A ^G2 | A4 A2 | z2 G2 z2 | D2 G3 A |[M:7/4] G6 z2 z2 z4 | %14
[M:4/4] [CEG]4 [B,DG]4 |] %15
V:2
 z2 z2 [G,B,]2 | [G,B,]2 [E,G,B,]2 [C,G,]2 | [D,G,D]3 [D,B,D] [D,A,D]2 | [G,B,D]4 B,2 | %4
 [A,C]2 [G,B,D]2 [F,A,D]2 | .[E,G,]2 z2 z2 |[M:5/8] B,2 A,3 |[M:1/4] [A,C]2 | %8
[M:3/4] [A,C]2 [=F,A,C]2 [D,A,]2 | [E,A,E]3 [E,CE] [E,B,E]2 | [A,CE]4 [F,A,D]2 | %11
 [G,D]2 .[E,G,C]2 [^C,G,_B,]2 | [D,G,B,]2 [D,B,D]3 [D,CD] |[M:7/4] [G,B,D]6 z2 z2 z4 | %14
[M:4/4] C,4 G,,4 |] %15
V:3
 x6 | x6 | x6 | x6 | x6 | z F, [EB]2 [EA]2 |[M:5/8] x5 |[M:1/4] x2 |[M:3/4] x6 | x6 | x6 | %11
 B2 z D, FE | x6 |[M:7/4] x14 |[M:4/4] x8 |] %15
V:4
 x6 | x6 | x6 | x6 | x6 | B,-[D,B,] [C,E,]2 [C,C]2 |[M:5/8] [D,D]-[D,D]- [D,D]3 |[M:1/4] x2 | %8
[M:3/4] x6 | x6 | x6 | x6 | x6 |[M:7/4] x14 |[M:4/4] x8 |] %15

